icons/zudoku-light.svg

<svg width="256" height="256" viewBox="0 0 256 256" fill="none" xmlns="http://www.w3.org/2000/svg">
<path d="M196 0H60C26.8629 0 0 26.8629 0 60V196C0 229.137 26.8629 256 60 256H196C229.137 256 256 229.137 256 196V60C256 26.8629 229.137 0 196 0Z" fill="#F4F2ED"/>
<path fill-rule="evenodd" clip-rule="evenodd" d="M150.877 52.6983C151.764 50.4277 153.317 48.4778 155.332 47.1041C157.347 45.7304 159.731 44.997 162.17 45H203.713C220.087 45 231.76 60.8657 226.879 76.4832L213.494 119.272C212.723 121.736 211.185 123.889 209.104 125.419C207.023 126.949 204.508 127.775 201.925 127.778H143.532C134.951 127.778 130.589 135.538 128 143.299C125.991 149.321 111.502 186.516 105.123 202.857C104.236 205.128 102.683 207.078 100.668 208.451C98.6526 209.825 96.2692 210.559 93.8298 210.556H52.2872C35.9131 210.556 24.24 194.69 29.1205 179.072L42.5056 136.283C43.2774 133.818 44.8165 131.664 46.8987 130.134C48.9809 128.605 51.4975 127.779 54.082 127.778H112.468C121.049 127.778 125.411 120.017 128 112.257C130.009 106.235 144.498 69.0401 150.877 52.6983Z" fill="#131313"/>
<path d="M157.504 140.712C152.104 140.712 147.277 144.057 145.379 149.107L126.411 199.636C125.953 200.859 125.798 202.175 125.959 203.471C126.121 204.768 126.595 206.005 127.34 207.079C128.085 208.152 129.08 209.029 130.238 209.634C131.397 210.24 132.685 210.556 133.993 210.556H182.741C189.331 210.556 195.764 208.547 201.18 204.798C206.597 201.048 210.739 195.736 213.053 189.571L221.138 168.015C226.096 154.805 216.326 140.712 202.198 140.712H157.504ZM75.4742 45C68.8854 45.0008 62.4537 47.0102 57.0385 50.7599C51.6232 54.5095 47.4823 59.8208 45.1689 65.9842L37.0833 87.5409C32.1257 100.751 41.9029 114.844 56.0233 114.844H100.718C106.118 114.844 110.951 111.498 112.843 106.449L131.811 55.9198C132.269 54.6965 132.424 53.3804 132.262 52.0842C132.101 50.788 131.627 49.5502 130.882 48.4769C130.136 47.4036 129.142 46.5266 127.983 45.9211C126.825 45.3156 125.537 44.9995 124.229 45H75.4742Z" fill="#131313"/>
</svg>

<svg xmlns="http://www.w3.org/2000/svg" width="256" height="256" fill="none"><path fill="#F4F2ED" d="M196 0H60C26.863 0 0 26.863 0 60v136c0 33.137 26.863 60 60 60h136c33.137 0 60-26.863 60-60V60c0-33.137-26.863-60-60-60"/><path fill="#131313" fill-rule="evenodd" d="M150.877 52.698a12.1 12.1 0 0 1 4.455-5.594A12.1 12.1 0 0 1 162.17 45h41.543c16.374 0 28.047 15.866 23.166 31.483l-13.385 42.789a12.12 12.12 0 0 1-4.39 6.147 12.14 12.14 0 0 1-7.179 2.359h-58.393c-8.581 0-12.943 7.76-15.532 15.521-2.009 6.022-16.498 43.217-22.877 59.558a12.11 12.11 0 0 1-11.293 7.699H52.287c-16.374 0-28.047-15.866-23.166-31.484l13.385-42.789a12.13 12.13 0 0 1 11.576-8.505h58.386c8.581 0 12.943-7.761 15.532-15.521 2.009-6.022 16.498-43.217 22.877-59.559" clip-rule="evenodd"/><path fill="#131313" d="M157.504 140.712a12.95 12.95 0 0 0-12.125 8.395l-18.968 50.529a8.087 8.087 0 0 0 7.582 10.92h48.748c6.59 0 13.023-2.009 18.439-5.758a32.34 32.34 0 0 0 11.873-15.227l8.085-21.556c4.958-13.21-4.812-27.303-18.94-27.303zM75.474 45c-6.589 0-13.02 2.01-18.436 5.76a32.34 32.34 0 0 0-11.87 15.224l-8.085 21.557c-4.957 13.21 4.82 27.303 18.94 27.303h44.695c5.4 0 10.233-3.346 12.125-8.395l18.968-50.53a8.08 8.08 0 0 0-3.828-9.998 8.1 8.1 0 0 0-3.754-.921z"/></svg>
